neru-light-classic/32x32/apps/rapidsvn.svg

<?xml version="1.0" encoding="UTF-8" standalone="no"?>
<svg
   xmlns:dc="http://purl.org/dc/elements/1.1/"
   xmlns:cc="http://creativecommons.org/ns#"
   xmlns:rdf="http://www.w3.org/1999/02/22-rdf-syntax-ns#"
   xmlns:svg="http://www.w3.org/2000/svg"
   xmlns="http://www.w3.org/2000/svg"
   xmlns:sodipodi="http://sodipodi.sourceforge.net/DTD/sodipodi-0.dtd"
   xmlns:inkscape="http://www.inkscape.org/namespaces/inkscape"
   height="32"
   viewBox="0 0 32 32"
   width="32"
   version="1.1"
   id="svg12"
   sodipodi:docname="rapidsvn.svg"
   inkscape:version="0.92.1 r">
  <metadata
     id="metadata18">
    <rdf:RDF>
      <cc:Work
         rdf:about="">
        <dc:format>image/svg+xml</dc:format>
        <dc:type
           rdf:resource="http://purl.org/dc/dcmitype/StillImage" />
      </cc:Work>
    </rdf:RDF>
  </metadata>
  <defs
     id="defs16" />
  <sodipodi:namedview
     pagecolor="#ffffff"
     bordercolor="#666666"
     borderopacity="1"
     objecttolerance="10"
     gridtolerance="10"
     guidetolerance="10"
     inkscape:pageopacity="0"
     inkscape:pageshadow="2"
     inkscape:window-width="640"
     inkscape:window-height="480"
     id="namedview14"
     showgrid="false"
     inkscape:zoom="8.9375"
     inkscape:cx="2.8816465"
     inkscape:cy="17.615777"
     inkscape:current-layer="svg12" />
  <path
     style="opacity:1;fill:#cccccc;fill-opacity:1;fill-rule:evenodd;stroke:none;stroke-width:1.03534329;stroke-linecap:round;stroke-linejoin:bevel;stroke-miterlimit:4;stroke-dasharray:none;stroke-dashoffset:0;stroke-opacity:1"
     d="M 15.701172 20.462891 C 14.444362 20.462891 13.222671 20.714027 12.314453 21.189453 C 11.860344 21.427166 11.484687 21.721754 11.222656 22.068359 C 10.960625 22.414965 10.8125 22.812863 10.8125 23.261719 C 10.8125 23.710575 11.037429 24.219189 11.414062 24.728516 C 11.790696 25.237842 12.31887 25.748451 12.925781 26.203125 C 13.532693 26.657799 14.217368 27.056898 14.908203 27.341797 C 15.599039 27.626695 16.295423 27.796875 16.923828 27.796875 C 17.427153 27.796875 17.909477 27.580928 18.347656 27.238281 C 18.785835 26.895634 19.181095 26.426378 19.513672 25.919922 C 20.178825 24.90701 20.591797 23.745506 20.591797 23.150391 C 20.591797 22.832482 20.443672 22.506898 20.181641 22.195312 C 19.919609 21.883727 19.543953 21.586571 19.089844 21.330078 C 18.181626 20.817093 16.957981 20.462891 15.701172 20.462891 z "
     id="path4508" />
  <path
     style="opacity:1;fill:#cccccc;fill-opacity:1;fill-rule:evenodd;stroke:none;stroke-width:1.03534329;stroke-linecap:round;stroke-linejoin:bevel;stroke-miterlimit:4;stroke-dasharray:none;stroke-dashoffset:0;stroke-opacity:1"
     d="M 24.259766 11.933594 C 23.584642 11.933594 22.971726 12.137369 22.529297 12.466797 C 22.086867 12.796224 21.814453 13.251217 21.814453 13.753906 C 21.814453 14.256596 22.086867 14.711588 22.529297 15.041016 C 22.971727 15.370444 23.584642 15.574219 24.259766 15.574219 C 24.934891 15.574219 25.545851 15.370443 25.988281 15.041016 C 26.430711 14.711588 26.703125 14.256596 26.703125 13.753906 C 26.703125 13.251217 26.430711 12.796224 25.988281 12.466797 C 25.545851 12.137369 24.934891 11.933594 24.259766 11.933594 z "
     id="path4506" />
  <path
     style="opacity:1;fill:#4f4f4f;fill-opacity:1;fill-rule:evenodd;stroke:none;stroke-width:1.03534329;stroke-linecap:round;stroke-linejoin:bevel;stroke-miterlimit:4;stroke-dasharray:none;stroke-dashoffset:0;stroke-opacity:1"
     d="M 29.033203 4.3613281 C 28.718208 4.6253721 27.813219 5.4159166 25.816406 6.6914062 C 24.666078 7.4261931 23.291971 8.224933 21.759766 8.9667969 C 20.227561 9.7086608 18.537177 10.393614 16.751953 10.902344 C 16.622629 11.394596 16.41095 12.009513 16.091797 12.654297 C 15.772644 13.299081 15.34487 13.974305 14.783203 14.587891 C 14.221536 15.201476 13.526788 15.753686 12.669922 16.152344 C 11.813056 16.551001 10.794593 16.796875 9.5898438 16.796875 C 8.8783273 16.796875 8.2337779 16.71376 7.6503906 16.566406 C 7.0670033 16.419053 6.5441836 16.206248 6.0761719 15.945312 C 5.1401483 15.423442 4.4221363 14.709111 3.8710938 13.935547 C 3.3200512 13.161983 2.9360587 12.3293 2.6679688 11.574219 C 2.3998788 10.819138 2.2473219 10.140249 2.1601562 9.6738281 C 2.0414799 9.5884623 2.0178773 9.5438323 1.8984375 9.4394531 L 1.8984375 24.527344 C 1.8984375 27.615995 4.3840054 30.101562 7.4726562 30.101562 L 24.527344 30.101562 C 27.615995 30.101563 30.101562 27.615995 30.101562 24.527344 L 30.101562 7.4726562 C 30.101563 6.2917818 29.654822 5.2608616 29.033203 4.3613281 z M 24.259766 11.933594 C 24.934891 11.933594 25.545851 12.137369 25.988281 12.466797 C 26.430711 12.796224 26.703125 13.251217 26.703125 13.753906 C 26.703125 14.256596 26.430711 14.711588 25.988281 15.041016 C 25.545851 15.370443 24.934891 15.574219 24.259766 15.574219 C 23.584642 15.574219 22.971727 15.370444 22.529297 15.041016 C 22.086867 14.711588 21.814453 14.256596 21.814453 13.753906 C 21.814453 13.251217 22.086867 12.796224 22.529297 12.466797 C 22.971726 12.137369 23.584642 11.933594 24.259766 11.933594 z M 15.701172 20.462891 C 16.957981 20.462891 18.181626 20.817093 19.089844 21.330078 C 19.543953 21.586571 19.919609 21.883727 20.181641 22.195312 C 20.443672 22.506898 20.591797 22.832482 20.591797 23.150391 C 20.591797 23.745506 20.178825 24.90701 19.513672 25.919922 C 19.181095 26.426378 18.785835 26.895634 18.347656 27.238281 C 17.909477 27.580928 17.427153 27.796875 16.923828 27.796875 C 16.295423 27.796875 15.599039 27.626695 14.908203 27.341797 C 14.217368 27.056898 13.532693 26.657799 12.925781 26.203125 C 12.31887 25.748451 11.790696 25.237842 11.414062 24.728516 C 11.037429 24.219189 10.8125 23.710575 10.8125 23.261719 C 10.8125 22.812863 10.960625 22.414965 11.222656 22.068359 C 11.484687 21.721754 11.860344 21.427166 12.314453 21.189453 C 13.222671 20.714027 14.444362 20.462891 15.701172 20.462891 z "
     id="path4504" />
  <path
     style="opacity:1;fill:#cccccc;fill-opacity:1;fill-rule:evenodd;stroke:none;stroke-width:1.03534329;stroke-linecap:round;stroke-linejoin:bevel;stroke-miterlimit:4;stroke-dasharray:none;stroke-dashoffset:0;stroke-opacity:1"
     d="M 28.228516 3.3632812 C 27.950222 3.5980904 26.268023 5.0511202 23.167969 6.7753906 C 21.497565 7.7044802 19.519594 8.6435965 17.345703 9.3691406 C 16.258758 9.7319127 15.122524 10.041157 13.951172 10.269531 C 12.77982 10.497906 11.57382 10.645291 10.345703 10.683594 C 8.9984543 10.72557 7.8326349 10.57708 6.8378906 10.339844 C 5.8431464 10.102608 5.0194469 9.7763912 4.3574219 9.4609375 C 3.0906926 8.8573249 1.9994773 7.7873396 1.8984375 7.6894531 L 1.8984375 9.4394531 C 2.0178773 9.5438323 2.0414799 9.5884623 2.1601562 9.6738281 C 2.2473219 10.140249 2.3998788 10.819138 2.6679688 11.574219 C 2.9360587 12.3293 3.3200512 13.161983 3.8710938 13.935547 C 4.4221363 14.709111 5.1401483 15.423442 6.0761719 15.945312 C 6.5441836 16.206248 7.0670033 16.419053 7.6503906 16.566406 C 8.2337779 16.71376 8.8783273 16.796875 9.5898438 16.796875 C 10.794593 16.796875 11.813056 16.551001 12.669922 16.152344 C 13.526788 15.753686 14.221536 15.201476 14.783203 14.587891 C 15.34487 13.974305 15.772644 13.299081 16.091797 12.654297 C 16.41095 12.009513 16.622629 11.394596 16.751953 10.902344 C 18.537177 10.393614 20.227561 9.7086608 21.759766 8.9667969 C 23.291971 8.224933 24.666078 7.4261931 25.816406 6.6914062 C 27.813219 5.4159166 28.718208 4.6253721 29.033203 4.3613281 C 28.785876 4.0034257 28.550943 3.6533413 28.228516 3.3632812 z "
     id="path4502" />
  <path
     style="opacity:1;fill:#4f4f4f;fill-opacity:1;fill-rule:evenodd;stroke:none;stroke-width:1.03534329;stroke-linecap:round;stroke-linejoin:bevel;stroke-miterlimit:4;stroke-dasharray:none;stroke-dashoffset:0;stroke-opacity:1"
     d="M 7.4726562 1.8984375 C 4.3840054 1.8984375 1.8984375 4.3840054 1.8984375 7.4726562 L 1.8984375 7.6894531 C 1.9994773 7.7873396 3.0906926 8.8573249 4.3574219 9.4609375 C 5.0194469 9.7763912 5.8431464 10.102608 6.8378906 10.339844 C 7.8326349 10.57708 8.9984543 10.72557 10.345703 10.683594 C 11.57382 10.645291 12.77982 10.497906 13.951172 10.269531 C 15.122524 10.041157 16.258758 9.7319127 17.345703 9.3691406 C 19.519594 8.6435965 21.497565 7.7044802 23.167969 6.7753906 C 26.268023 5.0511202 27.950222 3.5980904 28.228516 3.3632812 C 27.241734 2.4755609 25.965279 1.8984375 24.527344 1.8984375 L 7.4726562 1.8984375 z "
     id="rect4497-3" />
</svg>

<svg xmlns="http://www.w3.org/2000/svg" height="32" width="32"><path d="M15.701 20.463c-1.257 0-2.478.251-3.387.726-.454.238-.83.533-1.091.88-.262.346-.41.744-.41 1.193 0 .449.224.957.601 1.467.377.509.905 1.02 1.512 1.474a9.252 9.252 0 0 0 1.982 1.139c.691.285 1.387.455 2.016.455.503 0 .985-.216 1.424-.559.438-.342.833-.812 1.166-1.318.665-1.013 1.078-2.174 1.078-2.77 0-.318-.148-.643-.41-.955-.262-.311-.638-.608-1.092-.865-.908-.513-2.132-.867-3.389-.867zM24.26 11.934c-.675 0-1.288.203-1.73.533-.443.33-.716.784-.716 1.287 0 .503.273.958.715 1.287.443.33 1.056.533 1.73.533.676 0 1.287-.204 1.73-.533.442-.33.714-.784.714-1.287 0-.503-.272-.958-.715-1.287-.442-.33-1.053-.533-1.728-.533z" fill="#ccc" fill-rule="evenodd"/><path d="M29.033 4.361c-.315.264-1.22 1.055-3.217 2.33a39.836 39.836 0 0 1-4.056 2.276 31.171 31.171 0 0 1-5.008 1.935 9.39 9.39 0 0 1-.66 1.752 8.353 8.353 0 0 1-1.309 1.934 6.674 6.674 0 0 1-2.113 1.564c-.857.399-1.875.645-3.08.645a7.892 7.892 0 0 1-1.94-.23 6.473 6.473 0 0 1-1.574-.622c-.936-.522-1.654-1.236-2.205-2.01a9.635 9.635 0 0 1-1.203-2.36 12.684 12.684 0 0 1-.508-1.901c-.119-.086-.142-.13-.262-.235v15.088a5.561 5.561 0 0 0 5.575 5.575h17.054a5.561 5.561 0 0 0 5.575-5.575V7.473c0-1.181-.447-2.212-1.069-3.112zm-4.773 7.573c.675 0 1.286.203 1.728.533.443.33.715.784.715 1.287 0 .503-.272.958-.715 1.287-.442.33-1.053.533-1.728.533s-1.288-.204-1.73-.533c-.443-.33-.716-.784-.716-1.287 0-.503.273-.958.715-1.287.443-.33 1.056-.533 1.73-.533zM15.7 20.463c1.257 0 2.48.354 3.389.867.454.257.83.554 1.092.865.262.312.41.637.41.955 0 .596-.413 1.757-1.078 2.77-.333.506-.728.976-1.166 1.318-.439.343-.92.559-1.424.559-.629 0-1.325-.17-2.016-.455a9.252 9.252 0 0 1-1.982-1.139c-.607-.455-1.135-.965-1.512-1.474-.377-.51-.601-1.018-.601-1.467 0-.45.148-.847.41-1.194.262-.346.637-.64 1.091-.879.909-.475 2.13-.726 3.387-.726z" fill="#4f4f4f" fill-rule="evenodd"/><path d="M28.229 3.363c-.279.235-1.961 1.688-5.061 3.412-1.67.93-3.648 1.869-5.822 2.594a27.154 27.154 0 0 1-3.395.9 22.514 22.514 0 0 1-3.605.415 13.258 13.258 0 0 1-3.508-.344 12.44 12.44 0 0 1-2.48-.88c-1.267-.603-2.359-1.673-2.46-1.77v1.75c.12.104.143.148.262.234.087.466.24 1.145.508 1.9a9.635 9.635 0 0 0 1.203 2.362c.551.773 1.27 1.487 2.205 2.01.468.26.991.473 1.574.62.584.148 1.228.23 1.94.23 1.205 0 2.223-.245 3.08-.644a6.674 6.674 0 0 0 2.113-1.564 8.353 8.353 0 0 0 1.309-1.934c.319-.644.53-1.26.66-1.752a31.171 31.171 0 0 0 5.008-1.935 39.836 39.836 0 0 0 4.056-2.276c1.997-1.275 2.902-2.066 3.217-2.33-.247-.358-.482-.708-.804-.998z" fill="#ccc" fill-rule="evenodd"/><path d="M7.473 1.898a5.561 5.561 0 0 0-5.575 5.575v.216c.101.098 1.193 1.168 2.46 1.772a12.44 12.44 0 0 0 2.48.879c.995.237 2.16.386 3.508.344a22.514 22.514 0 0 0 3.605-.414 27.154 27.154 0 0 0 3.395-.9c2.174-.726 4.152-1.666 5.822-2.595 3.1-1.724 4.782-3.177 5.06-3.412-.986-.887-2.263-1.465-3.7-1.465H7.472z" fill="#4f4f4f" fill-rule="evenodd"/></svg>
